source/svgs/bowtie/uEA70-file-type-sln.svg

<svg xmlns="http://www.w3.org/2000/svg" viewBox="0 0 448 448" enable-background="new 0 0 448 448"><path d="M0 32v160h32v-32h190.543l-120.137 110.146-62.781-52.303-39.625 20.934v125.551l39.625 20.902 62.781-52.287 125.508 115.057 60.57-20.934v-251.056l-46.324-16.01h173.84v224h-96v32h128v-384h-448zm39.625 311.424v-83.729l41.85 41.85-41.85 41.879zm191.162 20.904l-86.545-62.783 86.545-62.768v125.551zm185.213-236.328h-384v-64h384v64z"/></svg>

<svg xmlns="http://www.w3.org/2000/svg" viewBox="0 0 448 448"><path d="M0 32v160h32v-32h190.543L102.406 270.146l-62.781-52.303L0 238.777v125.551l39.625 20.902 62.781-52.287L227.914 448l60.57-20.934V176.01L242.16 160H416v224h-96v32h128V32H0zm39.625 311.424v-83.729l41.85 41.85-41.85 41.879zm191.162 20.904l-86.545-62.783 86.545-62.768v125.551zM416 128H32V64h384v64z"/></svg>
